client/filepreviewer/pdfjs/web/images/gv-toolbarButton-download.svg

<svg width="24" height="24" viewBox="0 0 24 24" fill="none" xmlns="http://www.w3.org/2000/svg">
<path fill-rule="evenodd" clip-rule="evenodd" d="M16.969 10.059C17.262 9.766 17.737 9.766 18.03 10.059C18.323 10.352 18.323 10.827 18.03 11.12L12.15 17H11.35L5.46896 11.12C5.17596 10.827 5.17596 10.352 5.46896 10.059C5.76196 9.766 6.23696 9.766 6.52996 10.059L11 14.529V2.75C11 2.336 11.336 2 11.75 2C12.164 2 12.5 2.336 12.499 2.75V14.529L16.969 10.059ZM4.98193 19.7L5.78193 20.5H17.7169L18.5169 19.7V17.75C18.5169 17.336 18.8529 17 19.2669 17C19.6809 17 20.0169 17.336 20.0169 17.75V19.5C20.0169 20.881 18.8979 22 17.5169 22H5.98193C4.60093 22 3.48193 20.881 3.48193 19.5V17.75C3.48193 17.336 3.81793 17 4.23193 17C4.64593 17 4.98193 17.336 4.98193 17.75V19.7Z" fill="black"/>
</svg>

<svg xmlns="http://www.w3.org/2000/svg" width="24" height="24" fill="none"><path fill="#000" fill-rule="evenodd" d="M16.969 10.059a.75.75 0 1 1 1.061 1.061L12.15 17h-.8l-5.881-5.88a.75.75 0 1 1 1.061-1.061l4.47 4.47V2.75a.75.75 0 0 1 1.499 0v11.779zM4.982 19.7l.8.8h11.935l.8-.8v-1.95a.75.75 0 0 1 1.5 0v1.75a2.5 2.5 0 0 1-2.5 2.5H5.982a2.5 2.5 0 0 1-2.5-2.5v-1.75a.75.75 0 0 1 1.5 0z" clip-rule="evenodd"/></svg>
